svgs/todo-pin-stroke.svg

<svg viewBox="0 0 24 24" fill="none" xmlns="http://www.w3.org/2000/svg">
    <g style="transform: scale(0.9); transform-origin: center; opacity: 0.8;">
        <circle cx="12" cy="12" r="10" stroke="#ffffff" stroke-width="1.5"></circle>
        <path
            d="M14.4947 7.9751L15.0253 7.44504V7.44504L14.4947 7.9751ZM16.0358 9.51781L15.5052 10.0479L16.0358 9.51781ZM10.8692 15.2145L10.3386 15.7446L10.8692 15.2145ZM8.81084 13.1541L9.34144 12.624H9.34144L8.81084 13.1541ZM15.2835 12.9971L15.0197 12.2951L15.2835 12.9971ZM14.3249 13.3573L14.5887 14.0594H14.5887L14.3249 13.3573ZM10.6661 9.69089L9.96188 9.43287V9.43287L10.6661 9.69089ZM11.0133 8.74318L11.7175 9.0012V9.0012L11.0133 8.74318ZM9.42252 10.8367L9.62186 11.5598H9.62186L9.42252 10.8367ZM10.1508 10.5676L9.71263 9.9589L9.71263 9.9589L10.1508 10.5676ZM10.3379 10.3952L10.9087 10.8817L10.9087 10.8817L10.3379 10.3952ZM13.6255 13.6902L14.1165 14.2572L14.1165 14.2572L13.6255 13.6902ZM13.1903 14.6006L12.4672 14.4016L12.4672 14.4016L13.1903 14.6006ZM13.4585 13.8733L12.8491 13.4361L12.8491 13.4361L13.4585 13.8733ZM7.85923 11.8776L7.10925 11.8823V11.8823L7.85923 11.8776ZM7.96523 11.476L7.31531 11.1017L7.31531 11.1017L7.96523 11.476ZM12.1526 16.1716L12.1537 15.4216H12.1537L12.1526 16.1716ZM12.5466 16.0673L12.1749 15.4159L12.1749 15.4159L12.5466 16.0673ZM12.3486 6.51803L12.5102 7.25042L12.3486 6.51803ZM6.9694 15.9699C6.67666 16.263 6.6769 16.7379 6.96994 17.0306C7.26298 17.3233 7.73786 17.3231 8.0306 17.0301L6.9694 15.9699ZM10.3572 14.7011C10.65 14.408 10.6497 13.9332 10.3567 13.6404C10.0636 13.3477 9.58876 13.3479 9.29601 13.641L10.3572 14.7011ZM13.9641 8.50516L15.5052 10.0479L16.5664 8.98775L15.0253 7.44504L13.9641 8.50516ZM11.3998 14.6844L9.34144 12.624L8.28024 13.6841L10.3386 15.7446L11.3998 14.6844ZM15.0197 12.2951L14.0611 12.6552L14.5887 14.0594L15.5473 13.6992L15.0197 12.2951ZM11.3703 9.94891L11.7175 9.0012L10.3091 8.48516L9.96188 9.43287L11.3703 9.94891ZM9.62186 11.5598C9.95037 11.4692 10.3003 11.3841 10.589 11.1762L9.71263 9.9589C9.6936 9.9726 9.66055 9.99313 9.22318 10.1137L9.62186 11.5598ZM9.96188 9.43287C9.80569 9.85915 9.78243 9.89071 9.76708 9.90872L10.9087 10.8817C11.1395 10.6109 11.253 10.2692 11.3703 9.9489L9.96188 9.43287ZM10.589 11.1762C10.7071 11.0913 10.8144 10.9923 10.9087 10.8817L9.76708 9.90872C9.75099 9.9276 9.73271 9.94444 9.71263 9.9589L10.589 11.1762ZM14.0611 12.6552C13.7429 12.7748 13.403 12.8908 13.1345 13.1233L14.1165 14.2572C14.1342 14.2418 14.1652 14.2185 14.5887 14.0594L14.0611 12.6552ZM13.9134 14.7995C14.0335 14.363 14.054 14.3298 14.0678 14.3105L12.8491 13.4361C12.6421 13.7245 12.5574 14.0736 12.4672 14.4016L13.9134 14.7995ZM13.1345 13.1233C13.0275 13.216 12.9317 13.321 12.8491 13.4361L14.0678 14.3105C14.0819 14.2909 14.0982 14.273 14.1165 14.2572L13.1345 13.1233ZM9.34144 12.624C9.01182 12.294 8.81105 12.0914 8.68524 11.9334C8.55844 11.7741 8.60863 11.7796 8.60922 11.8729L7.10925 11.8823C7.11189 12.3016 7.32137 12.6285 7.5116 12.8675C7.70282 13.1077 7.97683 13.3804 8.28024 13.6841L9.34144 12.624ZM9.22318 10.1137C8.80952 10.2278 8.43666 10.3294 8.15177 10.4437C7.86833 10.5575 7.52462 10.7383 7.31531 11.1017L8.61515 11.8503C8.56846 11.9314 8.52184 11.9115 8.71061 11.8357C8.89793 11.7605 9.17241 11.6837 9.62186 11.5598L9.22318 10.1137ZM8.60922 11.8729C8.60917 11.8649 8.61123 11.8571 8.61515 11.8503L7.31531 11.1017C7.17862 11.3391 7.10752 11.6085 7.10925 11.8823L8.60922 11.8729ZM10.3386 15.7446C10.6439 16.0502 10.918 16.3262 11.1596 16.5186C11.3999 16.71 11.7292 16.9209 12.1515 16.9216L12.1537 15.4216C12.2482 15.4217 12.2543 15.4729 12.0941 15.3453C11.9352 15.2188 11.7315 15.0165 11.3998 14.6844L10.3386 15.7446ZM12.4672 14.4016C12.3426 14.8543 12.2653 15.131 12.1895 15.3197C12.1132 15.5099 12.0931 15.4626 12.1749 15.4159L12.9184 16.7187C13.285 16.5095 13.4671 16.1636 13.5816 15.8785C13.6966 15.5918 13.7987 15.2163 13.9134 14.7995L12.4672 14.4016ZM12.1515 16.9216C12.4204 16.922 12.6848 16.852 12.9184 16.7187L12.1749 15.4159C12.1684 15.4197 12.1611 15.4216 12.1537 15.4216L12.1515 16.9216ZM15.5052 10.0479C16.0457 10.5889 16.3893 10.9357 16.5946 11.2127C16.692 11.3442 16.7296 11.4234 16.7435 11.465C16.7496 11.4833 16.75 11.4911 16.75 11.4913C16.75 11.4916 16.75 11.4915 16.75 11.4912C16.75 11.491 16.75 11.4917 16.7495 11.494L18.2156 11.811C18.3445 11.2151 18.0948 10.7178 17.7997 10.3196C17.5126 9.93206 17.0717 9.49359 16.5664 8.98775L15.5052 10.0479ZM15.5473 13.6992C16.2163 13.4479 16.7989 13.2311 17.2205 12.9971C17.6538 12.7566 18.0868 12.407 18.2156 11.811L16.7495 11.494C16.749 11.4962 16.7487 11.4969 16.7488 11.4966C16.7489 11.4964 16.749 11.4962 16.7489 11.4965C16.7488 11.4966 16.7452 11.5035 16.7322 11.5176C16.7025 11.5496 16.6356 11.6061 16.4926 11.6855C16.1914 11.8527 15.7354 12.0262 15.0197 12.2951L15.5473 13.6992ZM15.0253 7.44504C14.5162 6.9354 14.0752 6.4912 13.6858 6.2021C13.2862 5.90541 12.786 5.65351 12.187 5.78564L12.5102 7.25042C12.5123 7.24996 12.513 7.24995 12.5125 7.24998C12.5121 7.25001 12.5118 7.24999 12.512 7.25001C12.5123 7.25002 12.5142 7.25015 12.518 7.25093C12.5219 7.25172 12.5284 7.25329 12.5378 7.25641C12.5795 7.27027 12.6591 7.30808 12.7917 7.40647C13.0705 7.61346 13.4197 7.9602 13.9641 8.50516L15.0253 7.44504ZM11.7175 9.0012C11.9826 8.27767 12.1539 7.81604 12.32 7.51081C12.3989 7.36573 12.4554 7.29779 12.4875 7.26759C12.4947 7.2608 12.5 7.25662 12.5032 7.25423C12.5064 7.25189 12.5081 7.25097 12.5083 7.25084C12.5085 7.25072 12.5083 7.25086 12.5079 7.25101C12.5075 7.25115 12.5081 7.25088 12.5102 7.25042L12.187 5.78564C11.5883 5.91775 11.2403 6.35664 11.0024 6.79385C10.7706 7.21994 10.557 7.80847 10.3091 8.48516L11.7175 9.0012ZM8.0306 17.0301L10.3572 14.7011L9.29601 13.641L6.9694 15.9699L8.0306 17.0301Z"
            fill="#ffffff"></path>
    </g>
</svg>

<svg viewBox="0 0 24 24" fill="none" xmlns="http://www.w3.org/2000/svg">
    <g style="transform: scale(0.9); transform-origin: center; opacity: 0.8;">
        <circle cx="12" cy="12" r="10" stroke="#ffffff" stroke-width="1.5"></circle>
        <path fill="#ffffff"
            d="m14.495 7.975.53-.53-.53.53Zm1.54 1.543-.53.53.53-.53Zm-5.166 5.696-.53.53.53-.53Zm-2.058-2.06.53-.53-.53.53Zm6.473-.157-.264-.702.264.702Zm-.96.36.265.702-.264-.702Zm-3.658-3.666-.704-.258.704.258Zm.347-.948.704.258-.704-.258Zm-1.59 2.094.199.723-.2-.723Zm.728-.27-.438-.608.438.609Zm.187-.172.57.487-.57-.487Zm3.288 3.295.49.567-.49-.567Zm-.436.91-.723-.198.723.199Zm.269-.727-.61-.437.61.437Zm-5.6-1.995-.75.004.75-.004Zm.106-.402-.65-.374.65.374Zm4.188 4.696v-.75.75Zm.394-.105-.372-.651.372.651Zm-.198-9.549.161.732-.161-.732Zm-5.38 9.452a.75.75 0 0 0 1.062 1.06l-1.062-1.06Zm3.388-1.269a.75.75 0 1 0-1.061-1.06l1.061 1.06Zm3.607-6.196 1.541 1.543 1.061-1.06-1.54-1.543-1.062 1.06Zm-2.564 6.18L9.34 12.623l-1.06 1.06 2.058 2.06 1.06-1.06Zm3.62-2.39-.959.36.528 1.404.958-.36-.527-1.404ZM11.37 9.95 11.718 9l-1.409-.516-.347.948 1.408.516Zm-1.748 1.61c.328-.09.678-.175.967-.383L9.713 9.96c-.02.014-.052.034-.49.155l.399 1.446Zm.34-2.126c-.156.426-.18.458-.195.476l1.142.973c.23-.271.344-.613.461-.933l-1.408-.516Zm.627 1.743c.118-.085.225-.184.32-.294l-1.142-.973a.308.308 0 0 1-.054.05l.876 1.217Zm3.472 1.48c-.318.119-.658.235-.927.467l.982 1.134c.018-.015.05-.038.473-.198l-.528-1.404Zm-.148 2.143c.12-.436.141-.47.155-.489l-1.219-.874c-.207.289-.292.638-.382.966l1.446.398Zm-.779-1.676a1.81 1.81 0 0 0-.285.313l1.219.874a.308.308 0 0 1 .049-.053l-.983-1.134Zm-3.793-.499c-.33-.33-.53-.533-.656-.69-.127-.16-.076-.154-.076-.061l-1.5.01c.003.419.212.746.403.985.19.24.465.512.768.816l1.061-1.06Zm-.118-2.51c-.413.114-.786.215-1.071.33-.284.113-.627.294-.837.658l1.3.748c-.047.081-.093.062.096-.014.187-.075.461-.152.91-.276l-.398-1.446Zm-.614 1.759c0-.008.002-.016.006-.023l-1.3-.748a1.545 1.545 0 0 0-.206.78l1.5-.01Zm1.73 3.872c.305.305.579.581.82.774.24.191.57.402.992.403l.003-1.5c.094 0 .1.05-.06-.077-.159-.126-.362-.329-.694-.66l-1.061 1.06Zm2.128-1.343c-.124.452-.202.729-.277.918-.077.19-.097.143-.015.096l.743 1.303c.367-.21.55-.555.664-.84.115-.287.217-.663.331-1.08l-1.446-.397Zm-.316 2.52c.27 0 .534-.07.767-.203l-.743-1.303a.042.042 0 0 1-.021.006l-.002 1.5Zm3.354-6.874c.54.54.884.888 1.09 1.165.097.131.135.21.149.252a.112.112 0 0 1 .006.026v.003l1.466.317c.128-.596-.121-1.093-.416-1.491-.287-.388-.728-.826-1.234-1.332l-1.06 1.06Zm.042 3.651c.67-.251 1.252-.468 1.674-.702.433-.24.866-.59.995-1.186l-1.466-.317-.001.003s-.004.007-.017.02a.992.992 0 0 1-.24.168c-.3.168-.757.341-1.472.61l.527 1.404Zm-.522-6.254c-.509-.51-.95-.954-1.34-1.243-.399-.297-.899-.548-1.498-.416l.323 1.464h.008l.02.006a.995.995 0 0 1 .254.15c.278.207.628.554 1.172 1.1l1.061-1.061Zm-3.308 1.556c.266-.723.437-1.185.603-1.49a.995.995 0 0 1 .183-.257l.005-.003h.002l-.323-1.465c-.599.132-.947.57-1.185 1.008-.231.426-.445 1.014-.693 1.691l1.409.516Zm-3.686 8.03 2.326-2.33-1.061-1.06-2.327 2.329 1.062 1.06Z" />
    </g>
</svg>
